X: 1
T: Larry McDonagh's
M: 4/4
L: 1/8
R: reel
K: Gmaj
G3A B2BA|~B3G AGEF|~G3A B2BA|GABG AGEF|
~G3B dBBA|~B3G AGEF|~G3A BcdB|GABG (3ABA G2||
~g3f edgd|edgd BABd|~g3f (3efg fa|gedB c2BA|
~g3f edgd|edgd BABd|gfgf ed^cd|efaf gedB||
